X:1
T:Anatolia, 87.87 D
T:Anatolia, 87.87 D
T:Theodore Edson Perkins, 1865
T:Public Domain Courtesy of the Cyber Hymnal™
C:Theodore Edson Perkins, 1865
Z:Public Domain
Z:Courtesy of the Cyber Hymnal™
%%score ( 1 2 ) ( 3 4 )
L:1/8
Q:1/4=96
M:3/4
K:Ab
V:1 treble 
V:2 treble 
V:3 bass 
V:4 bass 
V:1
 [Ec][=D=B] [Ec]2 [CA]2 | [CE][DF] [CE]2 [CA]2 | [EG][EA] [EB]2 [EB]2 | [Ed][Ec] [EB]4 | %4
 [Ec][=D=B] [Ec]2 [CA]2 | [CA][EG] [DF]2 [FA]2 | [FA][DF] [CE]2 [CA]2 | [DB][DG] [CA]4 | %8
 [EB][EB] [Ee]2 [GB]2 | [Ac][Fd] [Ec]2 [CA]2 | [Fd][Af] [Ae]2 [Ac]2 | [GB]A [GB]4 | %12
 [Ec][=D=B] [Ec]2 [CA]2 | [FA][EG] [DF]2 [FA]2 | [FA][DF] [CE]2 [CA]2 | [DB][DG] [CA]4 |] %16
V:2
 x6 | x6 | x6 | x6 | x6 | x6 | x6 | x6 | x6 | x6 | x6 | x A x4 | x6 | x6 | x6 | x6 |] %16
V:3
 [A,,A,][A,,A,] [A,,A,]2 [A,,A,]2 | [A,,A,][A,,A,] [A,,A,]2 [A,,A,]2 | %2
 [E,B,][E,A,] [E,G,]2 [E,G,]2 | [E,B,][E,A,] [E,G,]4 | [A,,A,][A,,A,] [A,,A,]2 [A,,A,]2 | %5
 [A,,A,][A,,A,] [D,A,]2 [D,A,]2 | [D,A,][F,A,] A,2 A,2 | [E,G,][E,B,] [A,,A,]4 | %8
 [E,G,][E,G,] [E,G,]2 [E,B,]2 | A,A, A,2 A,2 | [D,A,][D,A,] [A,,C]2 [A,,E]2 | [E,E][F,C] [E,E]4 | %12
 A,A, [A,,A,]2 [A,,A,]2 | [A,,A,][A,,A,] [D,A,]2 [D,A,]2 | [D,A,][D,A,] [A,,A,]2 [A,,A,]2 | %15
 [E,G,][E,B,] [A,,A,]4 |] %16
V:4
 x6 | x6 | x6 | x6 | x6 | x6 | x2 A,2 A,2 | x6 | x6 | A,A, A,2 A,2 | x6 | x6 | A,A, x4 | x6 | x6 | %15
 x6 |] %16

